synths/sMATIC.svg

<svg width="42" height="42" viewBox="0 0 42 42" fill="none" xmlns="http://www.w3.org/2000/svg">
<g clip-path="url(#clip0_7277_57907)">
<mask id="mask0_7277_57907" style="mask-type:alpha" maskUnits="userSpaceOnUse" x="0" y="0" width="42" height="42">
<circle cx="21" cy="21" r="21" transform="matrix(-1 0 0 1 42 0)" fill="url(#paint0_linear_7277_57907)"/>
</mask>
<g mask="url(#mask0_7277_57907)">
<circle cx="21" cy="21" r="21" transform="matrix(-1 0 0 1 42 0)" fill="#34EDB3"/>
<circle cx="18.2" cy="18.2" r="18.2" transform="matrix(-1 0 0 1 39.2 2.80005)" fill="white"/>
</g>
<circle cx="16.1" cy="16.1" r="16.1" transform="matrix(-1 0 0 1 37.1 4.90002)" fill="#0B0B22"/>
<g clip-path="url(#clip1_7277_57907)">
<path d="M21 37.1C29.8615 37.1 37.1 29.8486 37.1 21C37.1 12.1386 29.8486 4.90002 21 4.90002C12.1386 4.90002 4.90002 12.1515 4.90002 21C4.90002 29.8615 12.1515 37.1 21 37.1Z" fill="url(#paint1_linear_7277_57907)"/>
<path d="M25.6626 24.4776L30.2221 21.8501C30.4668 21.7084 30.6085 21.4508 30.6085 21.1674V15.9124C30.6085 15.629 30.4539 15.3714 30.2221 15.2298L25.6626 12.6022C25.4179 12.4606 25.1216 12.4606 24.8769 12.6022L20.3174 15.2298C20.0727 15.3714 19.931 15.629 19.931 15.9124V25.3148L16.7367 27.1566L13.5425 25.3148V21.6311L16.7367 19.7893L18.8491 21V18.527L17.136 17.5353C17.0201 17.4709 16.8784 17.4322 16.7496 17.4322C16.6079 17.4322 16.4791 17.4709 16.3632 17.5353L11.8037 20.1628C11.559 20.3045 11.4173 20.5621 11.4173 20.8454V26.1005C11.4173 26.3838 11.5719 26.6414 11.8037 26.7831L16.3632 29.4106C16.6079 29.5523 16.9042 29.5523 17.1489 29.4106L21.7084 26.7831C21.9531 26.6414 22.0948 26.3838 22.0948 26.1005V16.6981L22.1463 16.6594L25.2891 14.8434L28.4833 16.6852V20.3689L25.2891 22.2107L23.1896 21V23.473L24.9027 24.4647C25.1474 24.6064 25.4436 24.6064 25.6883 24.4647L25.6626 24.4776Z" fill="white"/>
</g>
</g>
<defs>
<linearGradient id="paint0_linear_7277_57907" x1="21" y1="0" x2="21" y2="61.4091" gradientUnits="userSpaceOnUse">
<stop stop-color="#08021E"/>
<stop offset="1" stop-color="#1F0777"/>
</linearGradient>
<linearGradient id="paint1_linear_7277_57907" x1="-0.989145" y1="7.51481" x2="32.2155" y2="27.8781" gradientUnits="userSpaceOnUse">
<stop stop-color="#A229C5"/>
<stop offset="1" stop-color="#7B3FE4"/>
</linearGradient>
<clipPath id="clip0_7277_57907">
<rect width="42" height="42" fill="white"/>
</clipPath>
<clipPath id="clip1_7277_57907">
<rect width="32.2" height="32.2" fill="white" transform="translate(4.90002 4.90002)"/>
</clipPath>
</defs>
</svg>

<svg xmlns="http://www.w3.org/2000/svg" width="42" height="42" fill="none"><g clip-path="url(#a)"><mask id="c" width="42" height="42" x="0" y="0" maskUnits="userSpaceOnUse" style="mask-type:alpha"><circle cx="21" cy="21" r="21" fill="url(#b)" transform="matrix(-1 0 0 1 42 0)"/></mask><g mask="url(#c)"><circle cx="21" cy="21" r="21" fill="#34EDB3" transform="matrix(-1 0 0 1 42 0)"/><circle cx="18.2" cy="18.2" r="18.2" fill="#fff" transform="matrix(-1 0 0 1 39.2 2.8)"/></g><circle cx="16.1" cy="16.1" r="16.1" fill="#0B0B22" transform="matrix(-1 0 0 1 37.1 4.9)"/><g clip-path="url(#d)"><path fill="url(#e)" d="M21 37.1c8.861 0 16.1-7.251 16.1-16.1 0-8.861-7.251-16.1-16.1-16.1-8.861 0-16.1 7.252-16.1 16.1 0 8.861 7.252 16.1 16.1 16.1Z"/><path fill="#fff" d="m25.663 24.478 4.56-2.628a.778.778 0 0 0 .386-.683v-5.255a.806.806 0 0 0-.387-.682l-4.56-2.628a.78.78 0 0 0-.785 0l-4.56 2.628a.778.778 0 0 0-.386.682v9.403l-3.194 1.842-3.194-1.842V21.63l3.194-1.842L18.849 21v-2.473l-1.713-.992a.826.826 0 0 0-.386-.103.787.787 0 0 0-.387.103l-4.56 2.628a.778.778 0 0 0-.386.682v5.256c0 .283.155.54.387.682l4.56 2.628a.78.78 0 0 0 .785 0l4.56-2.628a.778.778 0 0 0 .386-.683v-9.402l.051-.039 3.143-1.816 3.194 1.842v3.684L25.29 22.21 23.19 21v2.473l1.714.992c.244.141.54.141.785 0l-.025.013Z"/></g></g><defs><linearGradient id="b" x1="21" x2="21" y1="0" y2="61.409" gradientUnits="userSpaceOnUse"><stop stop-color="#08021E"/><stop offset="1" stop-color="#1F0777"/></linearGradient><linearGradient id="e" x1="-.989" x2="32.215" y1="7.515" y2="27.878" gradientUnits="userSpaceOnUse"><stop stop-color="#A229C5"/><stop offset="1" stop-color="#7B3FE4"/></linearGradient><clipPath id="a"><path fill="#fff" d="M0 0h42v42H0z"/></clipPath><clipPath id="d"><path fill="#fff" d="M4.9 4.9h32.2v32.2H4.9z"/></clipPath></defs></svg>
